X: 82
M: 6/8
L: 1/8
K: D
|: A |\
dfa dfa | dfa agf | ceg ceg | ceg gfe |\
fef gfg | aga bag | fed dcB | Add d2 :|

